is/BinaryFile.svg

<svg xmlns="http://www.w3.org/2000/svg" viewBox="0 0 48 48" height="1em" width="1em">
  <path style="stroke:none;fill-rule:nonzero;fill:#dcdcdc;fill-opacity:1" d="M10 2c-.945 0-2 1.055-2 2v40c0 .89 1.11 2 2 2h28c.89 0 1.984-1.11 2-2V14L28 2Zm0 0"/>
  <path style="stroke:none;fill-rule:nonzero;fill:#000;fill-opacity:.196078" d="m30 14 10 10V14Zm0 0"/>
  <path style="stroke:none;fill-rule:nonzero;fill:#fff;fill-opacity:.392157" d="m28 2 12 12H30c-.89 0-2-1.11-2-2Zm0 0"/>
  <path style="stroke:none;fill-rule:evenodd;fill:#545454;fill-opacity:1" d="M18 14h2v6h-2Zm0 8h2v6h-2Zm4 0v6h6v-6Zm2 2h2v2h-2Zm-6 6h2v6h-2Zm4 0v6h6v-6Zm2 2h2v2h-2Zm6-2h2v6h-2Zm0 0"/>
</svg>

<svg xmlns="http://www.w3.org/2000/svg" viewBox="0 0 48 48" version="1.1" height="1em" width="1em">
  <g>
    <path style="stroke:none;fill-rule:nonzero;fill:rgb(86.27451%,86.27451%,86.27451%);fill-opacity:1" d="M 10 2 C 9.054688 2 8 3.054688 8 4 L 8 44 C 8 44.890625 9.109375 46 10 46 L 38 46 C 38.890625 46 39.984375 44.890625 40 44 L 40 14 L 28 2 Z M 10 2"/>
    <path style="stroke:none;fill-rule:nonzero;fill:rgb(0%,0%,0%);fill-opacity:0.196078" d="M 30 14 L 40 24 L 40 14 Z M 30 14"/>
    <path style="stroke:none;fill-rule:nonzero;fill:rgb(100%,100%,100%);fill-opacity:0.392157" d="M 28 2 L 40 14 L 30 14 C 29.109375 14 28 12.890625 28 12 Z M 28 2"/>
    <path style="stroke:none;fill-rule:evenodd;fill:rgb(32.941176%,32.941176%,32.941176%);fill-opacity:1" d="M 18 14 L 20 14 L 20 20 L 18 20 Z M 18 14"/>
    <path style="stroke:none;fill-rule:evenodd;fill:rgb(32.941176%,32.941176%,32.941176%);fill-opacity:1" d="M 18 22 L 20 22 L 20 28 L 18 28 Z M 18 22"/>
    <path style="stroke:none;fill-rule:evenodd;fill:rgb(32.941176%,32.941176%,32.941176%);fill-opacity:1" d="M 22 22 L 22 28 L 28 28 L 28 22 Z M 24 24 L 26 24 L 26 26 L 24 26 Z M 24 24"/>
    <path style="stroke:none;fill-rule:evenodd;fill:rgb(32.941176%,32.941176%,32.941176%);fill-opacity:1" d="M 18 30 L 20 30 L 20 36 L 18 36 Z M 18 30"/>
    <path style="stroke:none;fill-rule:evenodd;fill:rgb(32.941176%,32.941176%,32.941176%);fill-opacity:1" d="M 22 30 L 22 36 L 28 36 L 28 30 Z M 24 32 L 26 32 L 26 34 L 24 34 Z M 24 32"/>
    <path style="stroke:none;fill-rule:evenodd;fill:rgb(32.941176%,32.941176%,32.941176%);fill-opacity:1" d="M 30 30 L 32 30 L 32 36 L 30 36 Z M 30 30"/>
  </g>
</svg>
